X:1
T:SOMETHING IS SQUEEZING MY SKULL
C:Whyte
Z:All Rights Reserved
L:1/16
Q:1/4=120
M:4/4
K:G
V:1 treble nm="MusicXML Part"
%%MIDI program 0
V:1
"G" z4 z4 z4 z4 |"C" z4 z4 z4 z4 |"Em" z4 z4 z4 z4 |"C" z4 z4 z4 z4 |:"Am" z8 z2 A2A2A2 | %5
w: ||||I'm do ing|
w: ||||I'm do ing|
"F" Ac2A- A4- A6 AA |"Am" e2<e2 z2 e2 e2>d2- dc2B |"F" d2>c2- c8 z2 =f2 |"Am" e2e2e2e2 e2e2 e2>d2 | %9
w: ve ry well _ _ I can|block out the pre sent _ and the|past now _ I|know by now you think I should have|
w: ve ry well _ _ its a|mir ac I've ev en _ made it|this far _ The|mot _ ion _ of tax is ex|
"F" d2cc B2-c2 c2c2B2A2 |"G" G4 z4 GG2G GB2d |"C" g8 eeee edc2 |"Em" B8 ee2d- dc2B | %13
w: straigh tened my self _ out thank you drop|dead SOME THING IS SQUEE ZING MY|SKULL some thing I can bare ly des|cribe There is no _ love in|
w: cites me when you peel it back and bite|me * * * * * *|||
"C9" z4 BdB2- B4 z4 | z4 z4 z4 z4 :|"C9" z4 z4 z4 A4 |"Am" eee2-<e2A2>"Em"e2ee- e2>A2 | %17
w: mod ern life _||||
w: ||Di|az ep am _ thats val i um _ Tar|
"Am" eee2-<e2A2>"Em"e2ee- e2>e2- |"Am" ee-e2<e2A2>"Em"e2ez2e-e2 |"D9" e2d2B2e2 d2d2B2c2 |: %20
w: |||
w: maz ap am _ _ Lith i _ um H.|_ R. _ T. E. C. T. HOW _|long must I stay on this stuff DON'T|
"G" dddB z e2d ddB z B2c2 |"C9" dddB z e2d ddB z B2c2 :|"Em" gggg z e2g ggg z B2c2 | %23
w: |||
w: Gim me no mo! Don't gim me no mo! Please don't|Gim me no mo! Don't gim me no mo! Please don't|Gim me no mo! Don't gim me no mo! Please don't|
"C9" gggg z e2g ggg z G4 |"G" G4 z4 GG2G GB2d |"C" g8 eeee edc2 |"Em" B8 ee2d- dc2B | %27
w: |dead SOME THING IS SQUEE ZING MY|SKULL some thing I can bare ly des|cribe There is no _ love in|
w: Gim me no mo! Don't gim me no mo! OH|me * * * * * *|||
"C9" z4 BdB2- B8 |] %28
w: mod ern life _|
w: |

